X:1
T:Marchioness of Huntly [3], The (Aboyne Castle)
T:Marchioness of Huntly [3], The (Aboyne Castle)
T:Peter Milne
C:Peter Milne
L:1/8
M:4/4
K:A
V:1 treble 
V:1
 C | (A,>B,)(C>F) E<CA,>c | d>B d/c/B/A/ B<GE>C | A,>B,C>D E<CA>d | (3cde (3dcB c<AA>C | %5
 (A,>B,)(C>F) E<CA,>c | d>B d/c/B/A/ B<EG>B | A<EF>A E<CD>d | (3cde (3dcB c<A A || e | %10
 a>e d/c/B/A/ e<Ac>e | d>B d/c/B/A/ B<EG>e | a>Ace AaBb | a>c e/d/c/B/ c<AA>e | a>ecA e>cAE | %15
 D>F(C>E) (B,>E)G>B | A>EF>A E<CD>d | (3cde (3dcB c<A A || %18

